outputs/icons/file/cloud_sync_sharp.svg

<svg xmlns="http://www.w3.org/2000/svg" width="1200" height="1200" fill="none"><path fill="#000" fill-rule="evenodd" d="M625 250c159.25 0 291.81 113.313 321.56 264.25 113.75 7.875 203.44 101.5 203.44 217C1150 852 1052 950 931.25 950H362.5C217.688 950 100 832.31 100 687.5c0-135.19 102.375-246.75 234.063-260.75C388.75 321.75 498.563 250 625 250m82.055 374.93 59.3-61.03c4.04-4.16 10.84-4.16 14.88.215l59.305 61.035c6.8 6.78 2.125 18.59-7.44 18.59h-38.05c0 96.69-76.095 175-170.04 175-22.105 0-43.36-4.375-62.705-12.465-14.24-5.91-18.065-24.72-7.225-35.875 5.735-5.91 14.45-8.315 22.105-5.035 14.665 6.345 31.03 9.625 47.825 9.625 70.355 0 127.53-58.84 127.53-131.25h-38.045c-9.565 0-14.245-11.81-7.44-18.81M625.01 512.49c-70.355 0-127.534 58.845-127.534 131.25h38.049c9.565 0 14.24 11.815 7.65 18.595l-59.302 61.03c-4.251 4.375-10.84 4.375-15.091 0l-59.302-61.03c-6.803-6.78-2.126-18.595 7.439-18.595h38.047c0-96.685 76.094-174.999 170.044-174.999 22.105 0 43.36 4.375 62.7 12.469 14.245 5.907 18.07 24.72 7.23 35.875-5.74 5.905-14.455 8.315-22.105 5.03-14.67-6.34-31.035-9.625-47.825-9.625"/></svg>

<svg width="1200" height="1200" viewBox="0 0 1200 1200" fill="none" xmlns="http://www.w3.org/2000/svg"><path fill-rule="evenodd" d="M625 250C784.25 250 916.81 363.313 946.56 514.25C1060.31 522.125 1150 615.75 1150 731.25C1150 852 1052 950 931.25 950H362.5C217.688 950 100 832.31 100 687.5C100 552.31 202.375 440.75 334.063 426.75C388.75 321.75 498.563 250 625 250ZM707.055 624.93L766.355 563.9C770.395 559.74 777.195 559.74 781.235 564.115L840.54 625.15C847.34 631.93 842.665 643.74 833.1 643.74H795.05C795.05 740.43 718.955 818.74 625.01 818.74C602.905 818.74 581.65 814.365 562.305 806.275C548.065 800.365 544.24 781.555 555.08 770.4C560.815 764.49 569.53 762.085 577.185 765.365C591.85 771.71 608.215 774.99 625.01 774.99C695.365 774.99 752.54 716.15 752.54 643.74H714.495C704.93 643.74 700.25 631.93 707.055 624.93ZM625.01 512.49C554.655 512.49 497.476 571.335 497.476 643.74H535.525C545.09 643.74 549.765 655.555 543.175 662.335L483.873 723.365C479.622 727.74 473.033 727.74 468.782 723.365L409.48 662.335C402.677 655.555 407.354 643.74 416.919 643.74H454.966C454.966 547.055 531.06 468.741 625.01 468.741C647.115 468.741 668.37 473.116 687.71 481.21C701.955 487.117 705.78 505.93 694.94 517.085C689.2 522.99 680.485 525.4 672.835 522.115C658.165 515.775 641.8 512.49 625.01 512.49Z" fill="black"/></svg>
